X: 4905
T: Branle Du Parliament
R: barndance
M: 4/4
K: Fmajor
|:a3bagf2|g3fedc2|d3/2e/fga2g2|1 a8]:|2 f8]|
|:a2c'2abc'2|a3/2b/c'bagf2|g2b2gab2|g3/2a/bagfec|
f4abc'2|f4abc'2|d3/2e/fga2g2|1 a8]:|2 f8]|

